X: 1
T: Somerset Slip Jig
R: slip jig
M: 9/8
L: 1/8
K: Dmaj
|:f2 d dcd fed|fge efd cBA| f2 d dcd fed|efg ABc d2 [1 e  :| [2 f]
|:a2 A ABG Adf| B3 efd efg| a2 A ABG Adf| B2 B edc d2 [1 f :| [2 e :||

